resources/svg/lock-simple-thin.svg

<svg xmlns="http://www.w3.org/2000/svg" viewBox="0 0 256 256" fill="currentColor"><path d="M207.99414,84h-40V52a40,40,0,1,0-80,0V84h-40a12.01312,12.01312,0,0,0-12,12V208a12.01312,12.01312,0,0,0,12,12h160a12.01312,12.01312,0,0,0,12-12V96A12.01312,12.01312,0,0,0,207.99414,84Zm-112-32a32,32,0,1,1,64,0V84h-64Zm116,156a4.004,4.004,0,0,1-4,4h-160a4.004,4.004,0,0,1-4-4V96a4.004,4.004,0,0,1,4-4h160a4.004,4.004,0,0,1,4,4Z"/></svg>

<svg xmlns="http://www.w3.org/2000/svg" viewBox="0 0 256 256" fill="currentColor"><path d="M208,84H168V52a40,40,0,0,0-80,0V84H48A12,12,0,0,0,36,96V208a12,12,0,0,0,12,12H208a12,12,0,0,0,12-12V96A12,12,0,0,0,208,84ZM96,52a32,32,0,0,1,64,0V84H96ZM212,208a4,4,0,0,1-4,4H48a4,4,0,0,1-4-4V96a4,4,0,0,1,4-4H208a4,4,0,0,1,4,4Z"/></svg>
